X:198
T: Die Mordeltern
N: Q0085n
O: Osteuropa, UdSSR, Bessarabien
R: Ballade, Habgier, Mord, Reue, Selbstmord
M: 6/8
L: 1/16
K: G
D2 | G2G2G2B2A2G2 | d4ded4
d2 | d4ded2c2cd | B4dBA4
D2 | G4A2B2A2G2 | e4g2d4
gf | e4e2d4B2 | d2c2d2B2z2

@@@ Tune index: 1253
